X: 263
T:Behind the Haystack
C:Jig
R:jig
M:6/8
K:D
| d2e fdB|d2e fdB|AFE EFE|AFE EFA|
d2e fdB|d2e fdB|AFD DED|AFD   DFA:|
|:~B3 BAF|ABc dcB|AFE EFE|AFE EFA|
~B3 BAF|ABc dcB|AFD DED|1 AFD DFA:|2 AFD D2f||
|:~g3 fgf|ede fdB|AFE EFE|AFE E2f|
~g3 fgf|ede fdB|AFD DED|1 AFD D2f:|2 AFD DFA||

